X: 501
T: Pudding Maggie
R: reel
B: Robert Bremner "A Collection of Scots Reels or Country Dances" 1757 p.50 #1
S: http://imslp.org/wiki/A_Collection_of_Scots_Reels_or_Country_Dances_(Bremner,_Robert)
Z: 2013 John Chambers <jc:trillian.mit.edu>
M: C|
L: 1/8
K: D
% - - - - - - - - - - - - - - - - - - - - - - - - -
V: 1
F |\
D/D/D AF ADDF | D/D/D AF BEEF |\
D/D/D A>B d>efe | dBAF ADD :|\
f |\
d>efg abaf | gefd beef |
d>efg abaf | ge (a/g/f/e/) fdde |\
defg abaf | gefd beef |\
(d/e/f) (e/f/g) (a/g/f) (g/f/e) | f>bef dDD |]
% - - - - - - - - - - - - - - - - - - - - - - - - -
V: 2 clef=bass middle=d
z |\
d2d2 d2d2 | d2d2 e2e2 |\
d2d2 d2d2 | g2a2 d2d :|\
z |\
d2d2 d2d2 | d2d2 e2e2 |
d2d2 d2d2 | G2A2 D2D2 |\
d2d2 d2d2 | d2d2 e2e2 |
d2e2 f2g2 | a2A2 D2D |]
% - - - - - - - - - - - - - - - - - - - - - - - - -

%%sep 1 1 500
%%sep 1 1 500
